X: 814
T: Gelse Nesîm-i Subh ile
C: Ali Ufkî
O: Turkey
F: http://compmusic.upf.edu/node/140
N: beyati--yuruksemai--senginsemai--gelse_nesim-i--iv_murad
N: makam= beyati
N: form= yuruksemai
N: usul= senginsemai = 6/4
M: 6/4
L: 1/16
K: C _2/4B   
Q: 1/4=96
%%MIDI tuningsystem comma53
d8 d4 c4 c8  | B4 B4 A4 G4 G8  | d4 d8 c4 c8  | \
w:  Gel se  ne sim-  |  i  subh  *  i  le   |  müj de  şe hi   | 
B8 A4 G4 G8  | G4 G4 G4 G4 G8  | 
w:  ba har *  dan    |  İt ti se  ha lâs   | 
G8 G4 d12  | d8 d4 c4 c8  | B4 B8 A4 A8  | \
w:  bül bül i   |  mih ne ti  in  |  ti zâr *  dan    | 
d4 d4 d4 c4 e8  | d24  | c4 c4 c4 B4 c8  | 
w:  Ca nım  ye le  lel  |  li   |  ha nım  ye le lel  | 
B24  | d4 d4 d4 c4 e8  | d24  | c4 c4 c4 B4 c8  | B24  | \
w:  li    |  Ca nım  ye le  lel  |  li   |  ha nım  ye le lel  |  li    | 
G4 G4 G4 G4 G4 G4  | G4 G4 G4 G4 d8  | 
w:  ye lel li  ye lel li   |  ye lel li  ye lâ   | 
d4 c4 B4 c4 B8  | A24  | G4 G4 G4 G4 G4 G4  | \
w:  mî rim  ye le lel  |  li    |  ye lel li  ye lel li   | 
G4 G4 G4 G4 d8  | d4 c4 B4 c4 B8  | 
w:  ye lel li  ye lâ   |  mî rim  ye le lel  | 
A24  | d8 d4 d4 d8  | c8 e4 d4 d8  | d8 e4 c4 c8  | \
w:  li    |  İr di  mu râ  |  da  sa ki yâ   |  çûş- i  hum  i  | 
c8 B4 A4 A8  | d8 d4 d4 d8  | 
w:  le  bu  Mu rad    |  İr di  mu râ  | 
c8 e4 d4 d8  | d8 e4 c4 c8  | c8 B4 A4 A8  | \
w:  da  sa ki yâ   |  çûş- i  hum  i  |  le  bu  Mu rad    | 
d8 d4 c4 c8  | B8 A4 B4 G8  | d8 d4 c4 c8  | 
w:  Kur tu la maz   |  mı  dil  da hi   |  keş me ke şi   | 
B8 A4 B4 G8  | d8 d4 c4 c8  | B8 A4 B4 G8  | \
w:  hu mar *  dan    |  Kur tu la maz   |  mı  dil  da hi   | 
d8 d4 c4 c8  | B8 A4 B4 G8  | d4 d4 d4 c4 e8  | 
w:  keş me ke şi   |  hu mar *  dan    |  Ca nım  ye le  lel  | 
d24  | c4 c4 c4 B4 c8  | B24  | d4 d4 d4 c4 e8  | d24  | \
w:  li   |  ha nım  ye le lel  |  li    |  Ca nım  ye le  lel  |  li   | 
c4 c4 c4 B4 c8  | B24  | G4 G4 G4 G4 G4 G4  | 
w:  ha nım  ye le lel  |  li    |  ye lel li  ye lel li   | 
G4 G4 G4 G4 d8  | d4 c4 B4 c4 B8  | A24  | \
w:  ye lel li  ye lâ   |  mî rim  ye le lel  |  li    | 
G4 G4 G4 G4 G4 G4  | G4 G4 G4 G4 d8  | 
w:  ye lel li  ye lel li   |  ye lel li  ye lâ   | 
d4 c4 B4 c4 B8  | A24  | |


